X:10019
T:Jenny, Will You Marry Me?
T:Love, Will You Marry Me?
T:Devil Is Dead, The
R:Fling
C:Trad.
O:Scotland
Z:Paul Hardy's Session Tunebook 2021 (see www.paulhardy.net). Creative Commons cc by-nc-sa licenced.
M:4/4
L:1/8
Q:1/4=160
K:G
GE|"G"D2DE GABA|"C"GEE2 cEGE|"G"D2DE GABc|"D"dedB (3ABA:|
|:GB|"G"d2dc Bcd2|"C"e2ed cde2|"G"d2dc BcdB|"D7"GABG (3ABA:|"_Out""G"G2|]

